assets/icons/app-grid.svg

<svg height="24" width="24" xmlns="http://www.w3.org/2000/svg"><path style="fill:gray;stroke-linecap:square;stroke-linejoin:round;fill-opacity:1" d="M6.5 6c-.277 0-.5.223-.5.5v1c0 .277.223.5.5.5h1c.277 0 .5-.223.5-.5v-1c0-.277-.223-.5-.5-.5h-1zm5 0c-.277 0-.5.223-.5.5v1c0 .277.223.5.5.5h1c.277 0 .5-.223.5-.5v-1c0-.277-.223-.5-.5-.5h-1zm5 0c-.277 0-.5.223-.5.5v1c0 .277.223.5.5.5h1c.277 0 .5-.223.5-.5v-1c0-.277-.223-.5-.5-.5h-1zm-10 5c-.277 0-.5.223-.5.5v1c0 .277.223.5.5.5h1c.277 0 .5-.223.5-.5v-1c0-.277-.223-.5-.5-.5h-1zm5 0c-.277 0-.5.223-.5.5v1c0 .277.223.5.5.5h1c.277 0 .5-.223.5-.5v-1c0-.277-.223-.5-.5-.5h-1zm5 0c-.277 0-.5.223-.5.5v1c0 .277.223.5.5.5h1c.277 0 .5-.223.5-.5v-1c0-.277-.223-.5-.5-.5h-1zm-10 5c-.277 0-.5.223-.5.5v1c0 .277.223.5.5.5h1c.277 0 .5-.223.5-.5v-1c0-.277-.223-.5-.5-.5h-1zm5 0c-.277 0-.5.223-.5.5v1c0 .277.223.5.5.5h1c.277 0 .5-.223.5-.5v-1c0-.277-.223-.5-.5-.5h-1zm5 0c-.277 0-.5.223-.5.5v1c0 .277.223.5.5.5h1c.277 0 .5-.223.5-.5v-1c0-.277-.223-.5-.5-.5h-1z"/></svg>

<?xml version="1.0" encoding="UTF-8" standalone="no"?>
<svg viewBox="0 0 24 24" height="24" width="24" version="1.1" id="svg4" sodipodi:docname="app-grid.svg" inkscape:version="1.1 (ce6663b3b7, 2021-05-25)"
   xmlns:inkscape="http://www.inkscape.org/namespaces/inkscape"
   xmlns:sodipodi="http://sodipodi.sourceforge.net/DTD/sodipodi-0.dtd"
   xmlns="http://www.w3.org/2000/svg"
   xmlns:svg="http://www.w3.org/2000/svg">
   <path id="rect30" style="fill:#808080;fill-rule:evenodd;stroke-linecap:square;stroke-linejoin:round;fill-opacity:1" d="M 6.5 6 C 6.223 6 6 6.223 6 6.5 L 6 7.5 C 6 7.777 6.223 8 6.5 8 L 7.5 8 C 7.777 8 8 7.777 8 7.5 L 8 6.5 C 8 6.223 7.777 6 7.5 6 L 6.5 6 z M 11.5 6 C 11.223 6 11 6.223 11 6.5 L 11 7.5 C 11 7.777 11.223 8 11.5 8 L 12.5 8 C 12.777 8 13 7.777 13 7.5 L 13 6.5 C 13 6.223 12.777 6 12.5 6 L 11.5 6 z M 16.5 6 C 16.223 6 16 6.223 16 6.5 L 16 7.5 C 16 7.777 16.223 8 16.5 8 L 17.5 8 C 17.777 8 18 7.777 18 7.5 L 18 6.5 C 18 6.223 17.777 6 17.5 6 L 16.5 6 z M 6.5 11 C 6.223 11 6 11.223 6 11.5 L 6 12.5 C 6 12.777 6.223 13 6.5 13 L 7.5 13 C 7.777 13 8 12.777 8 12.5 L 8 11.5 C 8 11.223 7.777 11 7.5 11 L 6.5 11 z M 11.5 11 C 11.223 11 11 11.223 11 11.5 L 11 12.5 C 11 12.777 11.223 13 11.5 13 L 12.5 13 C 12.777 13 13 12.777 13 12.5 L 13 11.5 C 13 11.223 12.777 11 12.5 11 L 11.5 11 z M 16.5 11 C 16.223 11 16 11.223 16 11.5 L 16 12.5 C 16 12.777 16.223 13 16.5 13 L 17.5 13 C 17.777 13 18 12.777 18 12.5 L 18 11.5 C 18 11.223 17.777 11 17.5 11 L 16.5 11 z M 6.5 16 C 6.223 16 6 16.223 6 16.5 L 6 17.5 C 6 17.777 6.223 18 6.5 18 L 7.5 18 C 7.777 18 8 17.777 8 17.5 L 8 16.5 C 8 16.223 7.777 16 7.5 16 L 6.5 16 z M 11.5 16 C 11.223 16 11 16.223 11 16.5 L 11 17.5 C 11 17.777 11.223 18 11.5 18 L 12.5 18 C 12.777 18 13 17.777 13 17.5 L 13 16.5 C 13 16.223 12.777 16 12.5 16 L 11.5 16 z M 16.5 16 C 16.223 16 16 16.223 16 16.5 L 16 17.5 C 16 17.777 16.223 18 16.5 18 L 17.5 18 C 17.777 18 18 17.777 18 17.5 L 18 16.5 C 18 16.223 17.777 16 17.5 16 L 16.5 16 z " />
   <defs id="defs8" />
   <sodipodi:namedview id="namedview6" pagecolor="#ffffff" bordercolor="#666666" borderopacity="1.0" inkscape:pageshadow="2" inkscape:pageopacity="0.0" inkscape:pagecheckerboard="0" showgrid="true" inkscape:snap-page="true" inkscape:zoom="28" inkscape:cx="10.482143" inkscape:cy="11.821429" inkscape:window-width="1920" inkscape:window-height="1043" inkscape:window-x="1920" inkscape:window-y="0" inkscape:window-maximized="1" inkscape:current-layer="svg4">
      <inkscape:grid type="xygrid" id="grid6" />
   </sodipodi:namedview>
</svg>
